gama.ui.shared/icons_svg/dark/display/toggle.overlay.svg

<svg height="25" viewBox="-561.831 -3314.16 25 25" width="25" xmlns="http://www.w3.org/2000/svg"><g fill="none"><path d="m-557.49053-3313.6597h16.31999c2.12078 0 3.84001 1.7192 3.84001 3.84v16.32c0 2.1207-1.71923 3.84-3.84001 3.84h-16.31999c-2.12077 0-3.84-1.7193-3.84-3.84v-16.32c0-2.1208 1.71923-3.84 3.84-3.84z" fill="#666"/><path d="m-557.49053-3313.6597h16.31999c2.12078 0 3.84001 1.7192 3.84001 3.84v16.32c0 2.1207-1.71923 3.84-3.84001 3.84h-16.31999c-2.12077 0-3.84-1.7193-3.84-3.84v-16.32c0-2.1208 1.71923-3.84 3.84-3.84z" stroke="#fff" stroke-linecap="round" stroke-linejoin="round" stroke-width=".25"/><path d="m-543.1083-3297.771v-8.9443c0-.6457-.5211-1.1667-1.1667-1.1667h-10.1111c-.64555 0-1.16666.521-1.16666 1.1667v8.9443zm0 .778h-12.44446v.389c0 .6454.52111 1.1665 1.16666 1.1665h10.1111c.6456 0 1.1667-.5211 1.1667-1.1665zm-13.22223-9.7223c0-1.0733.87113-1.9444 1.94443-1.9444h10.1111c1.07335 0 1.94447.8711 1.94447 1.9444v10.1113c0 1.073-.87112 1.9443-1.94447 1.9443h-10.1111c-1.0733 0-1.94443-.8713-1.94443-1.9443zm7 6.5023 1.70333-1.361c.1711-.1324.4122-.109.54444.062.13223.171.10886.4123-.06224.5445l-1.9444 1.5555c-.14.1167-.34225.1167-.48225 0l-1.94445-1.5555c-.1711-.1322-.19443-.3811-.0622-.5445.1322-.171.3811-.1944.5444-.062z" fill="#e3e6e1"/><g fill="#ccc"><path d="m-554.54424-3297.2857h10.39999c.60751 0 1.1.4925 1.1 1.1 0 .6075-.49249 1.1-1.1 1.1h-10.39999c-.60752 0-1.1-.4925-1.1-1.1 0-.6075.49248-1.1 1.1-1.1z"/><path d="m-555.64423-3297.2857h12.59999v.88365h-12.59999z"/></g></g></svg>

<?xml version="1.0" encoding="UTF-8" standalone="no"?>
<!DOCTYPE svg PUBLIC "-//W3C//DTD SVG 1.1//EN" "http://www.w3.org/Graphics/SVG/1.1/DTD/svg11.dtd">
<svg xmlns="http://www.w3.org/2000/svg" xmlns:xl="http://www.w3.org/1999/xlink" version="1.1" xmlns:dc="http://purl.org/dc/elements/1.1/" viewBox="-561.83053 -3314.1597 25 25" width="25" height="25">
  <defs/>
  <g id="SOURCES" stroke-opacity="1" fill="none" stroke="none" fill-opacity="1" stroke-dasharray="none">
    <title>SOURCES</title>
    <g id="SOURCES_Dark">
      <title>Dark</title>
      <g id="Graphic_11504">
        <path d="M -557.49053 -3313.6597 L -541.17054 -3313.6597 C -539.04976 -3313.6597 -537.33053 -3311.9405 -537.33053 -3309.8197 L -537.33053 -3293.4997 C -537.33053 -3291.379 -539.04976 -3289.6597 -541.17054 -3289.6597 L -557.49053 -3289.6597 C -559.6113 -3289.6597 -561.33053 -3291.379 -561.33053 -3293.4997 L -561.33053 -3309.8197 C -561.33053 -3311.9405 -559.6113 -3313.6597 -557.49053 -3313.6597 Z" fill="#666"/>
        <path d="M -557.49053 -3313.6597 L -541.17054 -3313.6597 C -539.04976 -3313.6597 -537.33053 -3311.9405 -537.33053 -3309.8197 L -537.33053 -3293.4997 C -537.33053 -3291.379 -539.04976 -3289.6597 -541.17054 -3289.6597 L -557.49053 -3289.6597 C -559.6113 -3289.6597 -561.33053 -3291.379 -561.33053 -3293.4997 L -561.33053 -3309.8197 C -561.33053 -3311.9405 -559.6113 -3313.6597 -557.49053 -3313.6597 Z" stroke="white" stroke-linecap="round" stroke-linejoin="round" stroke-width=".25"/>
      </g>
      <g id="Graphic_11503">
        <path d="M -543.1083 -3297.771 L -543.1083 -3306.7153 C -543.1083 -3307.361 -543.6294 -3307.882 -544.275 -3307.882 L -554.3861 -3307.882 C -555.03165 -3307.882 -555.55276 -3307.361 -555.55276 -3306.7153 L -555.55276 -3297.771 Z M -543.1083 -3296.993 L -555.55276 -3296.993 L -555.55276 -3296.604 C -555.55276 -3295.9586 -555.03165 -3295.4375 -554.3861 -3295.4375 L -544.275 -3295.4375 C -543.6294 -3295.4375 -543.1083 -3295.9586 -543.1083 -3296.604 Z M -556.33053 -3306.7153 C -556.33053 -3307.7886 -555.4594 -3308.6597 -554.3861 -3308.6597 L -544.275 -3308.6597 C -543.20165 -3308.6597 -542.33053 -3307.7886 -542.33053 -3306.7153 L -542.33053 -3296.604 C -542.33053 -3295.531 -543.20165 -3294.6597 -544.275 -3294.6597 L -554.3861 -3294.6597 C -555.4594 -3294.6597 -556.33053 -3295.531 -556.33053 -3296.604 Z M -549.33053 -3300.213 L -547.6272 -3301.574 C -547.4561 -3301.7064 -547.215 -3301.683 -547.08276 -3301.512 C -546.95053 -3301.341 -546.9739 -3301.0997 -547.145 -3300.9675 L -549.0894 -3299.412 C -549.2294 -3299.2953 -549.43165 -3299.2953 -549.57165 -3299.412 L -551.5161 -3300.9675 C -551.6872 -3301.0997 -551.71053 -3301.3486 -551.5783 -3301.512 C -551.4461 -3301.683 -551.1972 -3301.7064 -551.0339 -3301.574 Z" fill="#e3e6e1"/>
      </g>
      <g id="Graphic_11501">
        <path d="M -554.54424 -3297.2857 L -544.14425 -3297.2857 C -543.53674 -3297.2857 -543.04425 -3296.7932 -543.04425 -3296.1857 L -543.04425 -3296.1857 C -543.04425 -3295.5782 -543.53674 -3295.0857 -544.14425 -3295.0857 L -554.54424 -3295.0857 C -555.15176 -3295.0857 -555.64424 -3295.5782 -555.64424 -3296.1857 L -555.64424 -3296.1857 C -555.64424 -3296.7932 -555.15176 -3297.2857 -554.54424 -3297.2857 Z" fill="#ccc"/>
      </g>
      <g id="Graphic_11500">
        <rect x="-555.64423" y="-3297.2857" width="12.59999" height=".8836498" fill="#ccc"/>
      </g>
    </g>
  </g>
</svg>
